src/assets/white-diamond.svg

<svg width="25" height="19" viewBox="0 0 25 19" fill="white" xmlns="http://www.w3.org/2000/svg" >
<path d="M23.8967 4.76114L23.2367 4.03116L19.9167 0.331145C19.8309 0.223697 19.721 0.137875 19.5959 0.0805655C19.4709 0.0232559 19.3341 -0.00393172 19.1967 0.00115876H4.95667C4.82871 -0.00556773 4.70099 0.0170562 4.58313 0.0673209C4.46527 0.117586 4.36045 0.194137 4.27673 0.291137L1.51672 3.38116L0.246704 4.79114C0.169969 4.84996 0.107848 4.92565 0.0650635 5.01236C0.0222791 5.09906 0 5.19445 0 5.29114C0 5.38782 0.0222791 5.48324 0.0650635 5.56995C0.107848 5.65665 0.169969 5.73232 0.246704 5.79114L0.696655 6.30115C1.09666 6.76115 1.52666 7.25114 1.95667 7.70114C2.38667 8.15114 5.39665 11.5511 8.06665 14.5711L11.5267 18.4811C11.5938 18.5726 11.679 18.6491 11.7771 18.7059C11.8752 18.7627 11.984 18.7985 12.0967 18.8112C12.2081 18.799 12.3157 18.7633 12.4122 18.7064C12.5088 18.6495 12.5921 18.5727 12.6567 18.4811L23.9067 5.83115C23.9928 5.77057 24.0629 5.68999 24.111 5.59634C24.159 5.50269 24.1836 5.39877 24.1826 5.29352C24.1816 5.18826 24.155 5.08483 24.1052 4.99209C24.0554 4.89936 23.9839 4.8201 23.8967 4.76114ZM17.2767 4.67114L19.4268 1.56116L22.2167 4.67114H17.2767ZM16.3967 6.44116V6.30115C16.4485 6.16555 16.4854 6.02474 16.5067 5.88116H22.1868L19.4167 8.99115L14.0367 15.0511L13.4368 15.7311L16.3967 6.44116ZM13.3967 1.20114H18.2167L16.0867 4.31116L13.3967 1.20114ZM15.3267 5.89114L12.0867 16.2112L8.83667 5.89114H15.3267ZM9.32666 4.67114L12.0767 1.51114L14.8167 4.67114H9.32666ZM1.94666 4.67114L4.73669 1.56116L6.8667 4.67114H1.94666ZM5.94666 1.21115H10.7667L8.07666 4.31116L5.94666 1.21115ZM3.34668 5.88116H7.62671V5.95114L9.9967 13.4712L10.7067 15.7411L1.94666 5.89114L3.34668 5.88116Z" />
</svg>

<svg xmlns="http://www.w3.org/2000/svg" width="25" height="19" fill="#fff" viewBox="0 0 25 19"><path d="m23.897 4.761-.66-.73-3.32-3.7a.88.88 0 0 0-.72-.33H4.957a.84.84 0 0 0-.68.29l-2.76 3.09-1.27 1.41a.63.63 0 0 0 0 1l.45.51c.4.46.83.95 1.26 1.4s3.44 3.85 6.11 6.87l3.46 3.91a.82.82 0 0 0 .57.33.8.8 0 0 0 .56-.33l11.25-12.65a.65.65 0 0 0-.01-1.07m-6.62-.09 2.15-3.11 2.79 3.11zm-.88 1.77v-.14q.078-.203.11-.42h5.68l-2.77 3.11-5.38 6.06-.6.68zm-3-5.24h4.82l-2.13 3.11zm1.93 4.69-3.24 10.32-3.25-10.32zm-6-1.22 2.75-3.16 2.74 3.16zm-7.38 0 2.79-3.11 2.13 3.11zm4-3.46h4.82l-2.69 3.1zm-2.6 4.67h4.28v.07l2.37 7.52.71 2.27-8.76-9.85z"/></svg>
